images/3246175.svg

<?xml version="1.0" encoding="UTF-8"?>
<svg xmlns="http://www.w3.org/2000/svg" xmlns:xlink="http://www.w3.org/1999/xlink" width="300pt" height="300pt" viewBox="0 0 300 300" version="1.1">
<defs>
<g>
<symbol overflow="visible" id="glyph0-0">
<path style="stroke:none;" d="M 0.453125 1.59375 L 0.453125 -6.34375 L 4.953125 -6.34375 L 4.953125 1.59375 Z M 0.953125 1.09375 L 4.453125 1.09375 L 4.453125 -5.84375 L 0.953125 -5.84375 Z M 0.953125 1.09375 "/>
</symbol>
<symbol overflow="visible" id="glyph0-1">
<path style="stroke:none;" d="M 3.546875 -5.953125 C 2.898438 -5.953125 2.382812 -5.710938 2 -5.234375 C 1.625 -4.753906 1.4375 -4.101562 1.4375 -3.28125 C 1.4375 -2.445312 1.625 -1.789062 2 -1.3125 C 2.382812 -0.832031 2.898438 -0.59375 3.546875 -0.59375 C 4.191406 -0.59375 4.703125 -0.832031 5.078125 -1.3125 C 5.453125 -1.789062 5.640625 -2.445312 5.640625 -3.28125 C 5.640625 -4.101562 5.453125 -4.753906 5.078125 -5.234375 C 4.703125 -5.710938 4.191406 -5.953125 3.546875 -5.953125 Z M 3.546875 -6.6875 C 4.460938 -6.6875 5.195312 -6.375 5.75 -5.75 C 6.300781 -5.132812 6.578125 -4.3125 6.578125 -3.28125 C 6.578125 -2.238281 6.300781 -1.410156 5.75 -0.796875 C 5.195312 -0.179688 4.460938 0.125 3.546875 0.125 C 2.617188 0.125 1.878906 -0.179688 1.328125 -0.796875 C 0.773438 -1.410156 0.5 -2.238281 0.5 -3.28125 C 0.5 -4.3125 0.773438 -5.132812 1.328125 -5.75 C 1.878906 -6.375 2.617188 -6.6875 3.546875 -6.6875 Z M 3.546875 -6.6875 "/>
</symbol>
<symbol overflow="visible" id="glyph0-2">
<path style="stroke:none;" d="M 0.890625 -6.5625 L 4.65625 -6.5625 L 4.65625 -5.8125 L 1.765625 -5.8125 L 1.765625 -3.875 L 4.375 -3.875 L 4.375 -3.140625 L 1.765625 -3.140625 L 1.765625 0 L 0.890625 0 Z M 0.890625 -6.5625 "/>
</symbol>
<symbol overflow="visible" id="glyph0-3">
<path style="stroke:none;" d="M 0.890625 -6.5625 L 1.765625 -6.5625 L 1.765625 -3.875 L 5 -3.875 L 5 -6.5625 L 5.890625 -6.5625 L 5.890625 0 L 5 0 L 5 -3.125 L 1.765625 -3.125 L 1.765625 0 L 0.890625 0 Z M 0.890625 -6.5625 "/>
</symbol>
</g>
</defs>
<g id="surface38953">
<rect x="0" y="0" width="300" height="300" style="fill:rgb(100%,100%,100%);fill-opacity:1;stroke:none;"/>
<path style="fill:none;stroke-width:1;stroke-linecap:butt;stroke-linejoin:miter;stroke:rgb(0%,0%,0%);stroke-opacity:1;stroke-miterlimit:10;" d="M 204.027344 157.628906 L 204.027344 157.628906 M 201.875 159.722656 L 202.722656 160.332031 M 199.726562 161.816406 L 201.417969 163.035156 M 197.578125 163.910156 L 200.117188 165.738281 M 195.429688 166.003906 L 198.8125 168.4375 M 193.28125 168.09375 L 197.511719 171.140625 M 191.128906 170.1875 L 196.207031 173.84375 M 189.226562 172.042969 L 195.054688 176.238281 "/>
<path style="fill:none;stroke-width:1.2;stroke-linecap:butt;stroke-linejoin:miter;stroke:rgb(0%,0%,0%);stroke-opacity:1;stroke-miterlimit:10;" d="M 204.027344 157.628906 L 212.382812 176.179688 "/>
<path style="fill:none;stroke-width:1.2;stroke-linecap:butt;stroke-linejoin:miter;stroke:rgb(0%,0%,0%);stroke-opacity:1;stroke-miterlimit:10;" d="M 215.910156 141.121094 L 204.027344 157.628906 "/>
<path style="fill:none;stroke-width:1.2;stroke-linecap:butt;stroke-linejoin:miter;stroke:rgb(0%,0%,0%);stroke-opacity:1;stroke-miterlimit:10;" d="M 183.785156 155.59375 L 204.027344 157.628906 "/>
<path style="fill:none;stroke-width:1.2;stroke-linecap:butt;stroke-linejoin:miter;stroke:rgb(0%,0%,0%);stroke-opacity:1;stroke-miterlimit:10;" d="M 212.382812 176.179688 L 232.621094 178.21875 "/>
<path style="fill:none;stroke-width:1.2;stroke-linecap:butt;stroke-linejoin:miter;stroke:rgb(0%,0%,0%);stroke-opacity:1;stroke-miterlimit:10;" d="M 232.621094 178.21875 L 244.507812 161.707031 "/>
<path style="fill:none;stroke-width:1.2;stroke-linecap:butt;stroke-linejoin:miter;stroke:rgb(0%,0%,0%);stroke-opacity:1;stroke-miterlimit:10;" d="M 244.507812 161.707031 L 236.152344 143.15625 "/>
<path style=" stroke:none;fill-rule:nonzero;fill:rgb(0%,0%,0%);fill-opacity:1;" d="M 244.507812 161.707031 L 264.390625 167.316406 L 265.109375 160.171875 Z M 244.507812 161.707031 "/>
<path style=" stroke:none;fill-rule:nonzero;fill:rgb(0%,0%,0%);fill-opacity:1;" d="M 215.910156 141.121094 L 235.792969 146.730469 L 236.511719 139.585938 Z M 215.910156 141.121094 "/>
<path style="fill:none;stroke-width:1.2;stroke-linecap:butt;stroke-linejoin:miter;stroke:rgb(0%,0%,0%);stroke-opacity:1;stroke-miterlimit:10;" d="M 215.910156 141.121094 L 207.554688 122.570312 "/>
<path style="fill:none;stroke-width:1.2;stroke-linecap:butt;stroke-linejoin:miter;stroke:rgb(0%,0%,0%);stroke-opacity:1;stroke-miterlimit:10;" d="M 207.554688 122.570312 L 187.3125 120.53125 "/>
<path style="fill:none;stroke-width:1;stroke-linecap:butt;stroke-linejoin:miter;stroke:rgb(0%,0%,0%);stroke-opacity:1;stroke-miterlimit:10;" d="M 175.429688 137.042969 L 175.429688 137.042969 M 177.578125 134.949219 L 176.730469 134.339844 M 179.726562 132.855469 L 178.035156 131.636719 M 181.875 130.765625 L 179.335938 128.9375 M 184.023438 128.671875 L 180.640625 126.234375 M 186.175781 126.578125 L 181.941406 123.53125 M 188.324219 124.484375 L 183.246094 120.828125 M 190.226562 122.628906 L 184.402344 118.433594 "/>
<path style="fill:none;stroke-width:1.2;stroke-linecap:butt;stroke-linejoin:miter;stroke:rgb(0%,0%,0%);stroke-opacity:1;stroke-miterlimit:10;" d="M 175.429688 137.042969 L 183.785156 155.59375 "/>
<path style="fill:none;stroke-width:1.2;stroke-linecap:butt;stroke-linejoin:miter;stroke:rgb(0%,0%,0%);stroke-opacity:1;stroke-miterlimit:10;" d="M 155.1875 135.003906 L 175.429688 137.042969 "/>
<path style=" stroke:none;fill-rule:nonzero;fill:rgb(0%,0%,0%);fill-opacity:1;" d="M 183.785156 155.59375 L 168.984375 170.003906 L 174.8125 174.199219 Z M 183.785156 155.59375 "/>
<path style="fill:none;stroke-width:1.2;stroke-linecap:butt;stroke-linejoin:miter;stroke:rgb(0%,0%,0%);stroke-opacity:1;stroke-miterlimit:10;" d="M 171.898438 172.101562 L 151.65625 170.0625 "/>
<path style="fill:none;stroke-width:1.2;stroke-linecap:butt;stroke-linejoin:miter;stroke:rgb(0%,0%,0%);stroke-opacity:1;stroke-miterlimit:10;" d="M 151.65625 170.0625 L 143.300781 151.515625 "/>
<path style="fill:none;stroke-width:1.2;stroke-linecap:butt;stroke-linejoin:miter;stroke:rgb(0%,0%,0%);stroke-opacity:1;stroke-miterlimit:10;" d="M 143.300781 151.515625 L 155.1875 135.003906 "/>
<path style="fill:none;stroke-width:1;stroke-linecap:butt;stroke-linejoin:miter;stroke:rgb(0%,0%,0%);stroke-opacity:1;stroke-miterlimit:10;" d="M 143.300781 151.515625 L 143.300781 151.515625 M 140.945312 153.371094 L 141.722656 154.066406 M 138.589844 155.230469 L 140.144531 156.617188 M 136.230469 157.085938 L 138.566406 159.167969 M 133.875 158.941406 L 136.988281 161.71875 M 131.519531 160.800781 L 135.410156 164.273438 M 129.164062 162.65625 L 133.832031 166.824219 M 127.074219 164.300781 L 132.433594 169.082031 "/>
<path style="fill:none;stroke-width:1.2;stroke-linecap:butt;stroke-linejoin:miter;stroke:rgb(0%,0%,0%);stroke-opacity:1;stroke-miterlimit:10;" d="M 123.925781 145.3125 L 143.300781 151.515625 "/>
<path style="fill:none;stroke-width:1;stroke-linecap:butt;stroke-linejoin:miter;stroke:rgb(0%,0%,0%);stroke-opacity:1;stroke-miterlimit:10;" d="M 155.1875 135.003906 L 155.1875 135.003906 M 153.859375 132.3125 L 153.019531 132.929688 M 152.535156 129.625 L 150.851562 130.855469 M 151.207031 126.933594 L 148.683594 128.78125 M 149.882812 124.242188 L 146.515625 126.707031 M 148.554688 121.550781 L 144.351562 124.632812 M 147.226562 118.859375 L 142.183594 122.558594 M 146.050781 116.476562 L 140.261719 120.722656 "/>
<path style="fill:none;stroke-width:1.2;stroke-linecap:butt;stroke-linejoin:miter;stroke:rgb(0%,0%,0%);stroke-opacity:1;stroke-miterlimit:10;" d="M 143.15625 118.597656 L 123.835938 124.96875 "/>
<path style="fill:none;stroke-width:1.2;stroke-linecap:butt;stroke-linejoin:miter;stroke:rgb(0%,0%,0%);stroke-opacity:1;stroke-miterlimit:10;" d="M 123.835938 124.96875 L 123.925781 145.3125 "/>
<path style=" stroke:none;fill-rule:nonzero;fill:rgb(0%,0%,0%);fill-opacity:1;" d="M 123.925781 145.3125 L 105.394531 154.449219 L 109.640625 160.238281 Z M 123.925781 145.3125 "/>
<path style="fill:none;stroke-width:1.2;stroke-linecap:butt;stroke-linejoin:miter;stroke:rgb(0%,0%,0%);stroke-opacity:1;stroke-miterlimit:10;" d="M 105.140625 157.601562 L 106.246094 167.714844 "/>
<path style="fill:none;stroke-width:1.2;stroke-linecap:butt;stroke-linejoin:miter;stroke:rgb(100%,0%,0%);stroke-opacity:1;stroke-miterlimit:10;" d="M 106.246094 167.714844 L 107.355469 177.824219 "/>
<path style="fill:none;stroke-width:1.2;stroke-linecap:butt;stroke-linejoin:miter;stroke:rgb(0%,0%,0%);stroke-opacity:1;stroke-miterlimit:10;" d="M 109.898438 157.082031 L 111.003906 167.195312 "/>
<path style="fill:none;stroke-width:1.2;stroke-linecap:butt;stroke-linejoin:miter;stroke:rgb(100%,0%,0%);stroke-opacity:1;stroke-miterlimit:10;" d="M 111.003906 167.195312 L 112.113281 177.304688 "/>
<path style="fill:none;stroke-width:1.2;stroke-linecap:butt;stroke-linejoin:miter;stroke:rgb(0%,0%,0%);stroke-opacity:1;stroke-miterlimit:10;" d="M 107.519531 157.34375 L 88.898438 149.148438 "/>
<path style=" stroke:none;fill-rule:nonzero;fill:rgb(100%,100%,100%);fill-opacity:1;" d="M 105.734375 172.066406 L 113.734375 172.066406 L 113.734375 183.066406 L 105.734375 183.066406 Z M 105.734375 172.066406 "/>
<g style="fill:rgb(100%,0%,0%);fill-opacity:1;">
  <use xlink:href="#glyph0-1" x="105.734375" y="180.729492"/>
</g>
<path style="fill:none;stroke-width:1;stroke-linecap:butt;stroke-linejoin:miter;stroke:rgb(0%,0%,0%);stroke-opacity:1;stroke-miterlimit:10;" d="M 72.492188 161.179688 L 72.492188 161.179688 M 75.183594 159.851562 L 74.566406 159.011719 M 77.875 158.527344 L 76.640625 156.84375 M 80.5625 157.199219 L 78.714844 154.675781 M 83.253906 155.871094 L 80.789062 152.507812 M 85.945312 154.546875 L 82.863281 150.339844 M 88.636719 153.21875 L 84.9375 148.175781 M 91.019531 152.042969 L 86.773438 146.253906 "/>
<path style="fill:none;stroke-width:1.2;stroke-linecap:butt;stroke-linejoin:miter;stroke:rgb(0%,0%,0%);stroke-opacity:1;stroke-miterlimit:10;" d="M 72.492188 161.179688 L 53.871094 152.984375 "/>
<path style="fill:none;stroke-width:1.2;stroke-linecap:butt;stroke-linejoin:miter;stroke:rgb(0%,0%,0%);stroke-opacity:1;stroke-miterlimit:10;" d="M 72.492188 161.179688 L 73.597656 171.289062 "/>
<path style="fill:none;stroke-width:1.2;stroke-linecap:butt;stroke-linejoin:miter;stroke:rgb(100%,0%,0%);stroke-opacity:1;stroke-miterlimit:10;" d="M 73.597656 171.289062 L 74.707031 181.402344 "/>
<path style="fill:none;stroke-width:1.2;stroke-linecap:butt;stroke-linejoin:miter;stroke:rgb(0%,0%,0%);stroke-opacity:1;stroke-miterlimit:10;" d="M 53.871094 152.984375 L 44.558594 148.886719 "/>
<path style="fill:none;stroke-width:1.2;stroke-linecap:butt;stroke-linejoin:miter;stroke:rgb(20%,80%,80%);stroke-opacity:1;stroke-miterlimit:10;" d="M 44.558594 148.886719 L 35.25 144.792969 "/>
<path style="fill:none;stroke-width:1.2;stroke-linecap:butt;stroke-linejoin:miter;stroke:rgb(0%,0%,0%);stroke-opacity:1;stroke-miterlimit:10;" d="M 53.871094 152.984375 L 49.773438 162.296875 "/>
<path style="fill:none;stroke-width:1.2;stroke-linecap:butt;stroke-linejoin:miter;stroke:rgb(20%,80%,80%);stroke-opacity:1;stroke-miterlimit:10;" d="M 49.773438 162.296875 L 45.675781 171.605469 "/>
<path style="fill:none;stroke-width:1.2;stroke-linecap:butt;stroke-linejoin:miter;stroke:rgb(0%,0%,0%);stroke-opacity:1;stroke-miterlimit:10;" d="M 53.871094 152.984375 L 57.96875 143.675781 "/>
<path style="fill:none;stroke-width:1.2;stroke-linecap:butt;stroke-linejoin:miter;stroke:rgb(20%,80%,80%);stroke-opacity:1;stroke-miterlimit:10;" d="M 57.96875 143.675781 L 62.066406 134.363281 "/>
<path style=" stroke:none;fill-rule:nonzero;fill:rgb(100%,100%,100%);fill-opacity:1;" d="M 29.25 139.292969 L 35.25 139.292969 L 35.25 150.292969 L 29.25 150.292969 Z M 29.25 139.292969 "/>
<g style="fill:rgb(20%,80%,80%);fill-opacity:1;">
  <use xlink:href="#glyph0-2" x="29.25" y="147.956055"/>
</g>
<path style=" stroke:none;fill-rule:nonzero;fill:rgb(100%,100%,100%);fill-opacity:1;" d="M 39.675781 166.105469 L 45.675781 166.105469 L 45.675781 177.105469 L 39.675781 177.105469 Z M 39.675781 166.105469 "/>
<g style="fill:rgb(20%,80%,80%);fill-opacity:1;">
  <use xlink:href="#glyph0-2" x="39.675781" y="174.768555"/>
</g>
<path style=" stroke:none;fill-rule:nonzero;fill:rgb(100%,100%,100%);fill-opacity:1;" d="M 59.066406 128.863281 L 65.066406 128.863281 L 65.066406 139.863281 L 59.066406 139.863281 Z M 59.066406 128.863281 "/>
<g style="fill:rgb(20%,80%,80%);fill-opacity:1;">
  <use xlink:href="#glyph0-2" x="59.066406" y="137.526367"/>
</g>
<path style=" stroke:none;fill-rule:nonzero;fill:rgb(100%,100%,100%);fill-opacity:1;" d="M 67.707031 175.902344 L 82.707031 175.902344 L 82.707031 186.902344 L 67.707031 186.902344 Z M 67.707031 175.902344 "/>
<g style="fill:rgb(100%,0%,0%);fill-opacity:1;">
  <use xlink:href="#glyph0-1" x="67.707031" y="184.56543"/>
  <use xlink:href="#glyph0-3" x="75.048828" y="184.56543"/>
</g>
<path style=" stroke:none;fill-rule:nonzero;fill:rgb(100%,100%,100%);fill-opacity:1;" d="M 257.75 158.246094 L 272.75 158.246094 L 272.75 169.246094 L 257.75 169.246094 Z M 257.75 158.246094 "/>
<g style="fill:rgb(100%,0%,0%);fill-opacity:1;">
  <use xlink:href="#glyph0-1" x="257.75" y="166.90918"/>
  <use xlink:href="#glyph0-3" x="265.091797" y="166.90918"/>
</g>
</g>
</svg>

<svg xmlns="http://www.w3.org/2000/svg" xmlns:xlink="http://www.w3.org/1999/xlink" width="300pt" height="300pt" viewBox="0 0 300 300"><defs><symbol overflow="visible"><path d="M.453 1.594v-7.938h4.5v7.938zm.5-.5h3.5v-6.938h-3.5zm0 0"/></symbol><symbol overflow="visible" id="a"><path d="M3.547-5.953c-.65 0-1.164.242-1.547.72-.375.48-.563 1.13-.563 1.952 0 .835.188 1.49.563 1.967.383.48.898.72 1.547.72.644 0 1.156-.24 1.53-.72.376-.476.564-1.132.564-1.968 0-.822-.187-1.474-.562-1.954-.375-.477-.887-.72-1.53-.72zm0-.734c.914 0 1.648.312 2.203.937.55.617.828 1.438.828 2.47 0 1.042-.277 1.87-.828 2.483-.555.617-1.29.922-2.203.922-.93 0-1.668-.305-2.22-.922C.774-1.41.5-2.237.5-3.28c0-1.033.273-1.853.828-2.47.55-.625 1.29-.938 2.22-.938zm0 0"/></symbol><symbol overflow="visible" id="b"><path d="M.89-6.563h3.766v.75h-2.89v1.938h2.61v.734h-2.61V0H.89zm0 0"/></symbol><symbol overflow="visible" id="c"><path d="M.89-6.563h.876v2.688H5v-2.688h.89V0H5v-3.125H1.766V0H.89zm0 0"/></symbol></defs><g><path fill="#fff" d="M0 0h300v300H0z"/><path d="M204.027 157.63m-2.152 2.093l.848.61m-2.996 1.483l1.69 1.22m-3.84.874l2.54 1.828m-4.687.266l3.382 2.434m-5.53-.344l4.23 3.047m-6.383-.952l5.077 3.656m-6.98-1.8l5.828 4.194" stroke="#000" stroke-miterlimit="10" fill="none"/><path d="M204.027 157.63l8.356 18.55M215.91 141.12l-11.883 16.51M183.785 155.594l20.242 2.035M212.383 176.18l20.238 2.04M232.62 178.22l11.888-16.513M244.508 161.707l-8.356-18.55" stroke-width="1.2" stroke="#000" stroke-miterlimit="10" fill="none"/><path d="M244.508 161.707l19.883 5.61.72-7.145zm0 0M215.91 141.12l19.883 5.61.72-7.144zm0 0"/><path d="M215.91 141.12l-8.355-18.55M207.555 122.57l-20.243-2.04" stroke-width="1.2" stroke="#000" stroke-miterlimit="10" fill="none"/><path d="M175.43 137.043m2.148-2.094l-.848-.61m2.997-1.485l-1.692-1.218m3.84-.87l-2.54-1.83m4.688-.265l-3.382-2.438m5.536.344l-4.235-3.047m6.384.954l-5.078-3.656m6.98 1.8l-5.824-4.194" stroke="#000" stroke-miterlimit="10" fill="none"/><path d="M175.43 137.043l8.355 18.55M155.188 135.004l20.242 2.04" stroke-width="1.2" stroke="#000" stroke-miterlimit="10" fill="none"/><path d="M183.785 155.594l-14.8 14.41 5.827 4.195zm0 0"/><path d="M171.898 172.102l-20.242-2.04M151.656 170.063l-8.355-18.547M143.3 151.516l11.887-16.512" stroke-width="1.2" stroke="#000" stroke-miterlimit="10" fill="none"/><path d="M143.3 151.516m-2.355 1.855l.778.696m-3.133 1.164l1.555 1.387m-3.915.47l2.336 2.08m-4.69-.226l3.112 2.78m-5.468-.92l3.89 3.473m-6.246-1.617l4.668 4.168m-6.758-2.523l5.36 4.782" stroke="#000" stroke-miterlimit="10" fill="none"/><path d="M123.926 145.313l19.375 6.203" stroke-width="1.2" stroke="#000" stroke-miterlimit="10" fill="none"/><path d="M155.188 135.004m-1.33-2.69l-.838.616m-.485-3.305l-1.683 1.23m.355-3.92l-2.523 1.846m1.2-4.538l-3.368 2.465m2.04-5.156l-4.204 3.083m2.875-5.774l-5.043 3.7m3.867-6.083l-5.788 4.246" stroke="#000" stroke-miterlimit="10" fill="none"/><path d="M143.156 118.598l-19.32 6.37M123.836 124.97l.09 20.343" stroke-width="1.2" stroke="#000" stroke-miterlimit="10" fill="none"/><path d="M123.926 145.313l-18.53 9.136 4.245 5.788zm0 0"/><path d="M105.14 157.602l1.106 10.113" stroke-width="1.2" stroke="#000" stroke-miterlimit="10" fill="none"/><path d="M106.246 167.715l1.11 10.11" stroke-width="1.2" stroke="#f00" stroke-miterlimit="10" fill="none"/><path d="M109.898 157.082l1.106 10.113" stroke-width="1.2" stroke="#000" stroke-miterlimit="10" fill="none"/><path d="M111.004 167.195l1.11 10.11" stroke-width="1.2" stroke="#f00" stroke-miterlimit="10" fill="none"/><path d="M107.52 157.344l-18.622-8.196" stroke-width="1.2" stroke="#000" stroke-miterlimit="10" fill="none"/><path d="M105.734 172.066h8v11h-8zm0 0" fill="#fff"/><use xlink:href="#a" x="105.734" y="180.729" fill="#f00"/><path d="M72.492 161.18m2.692-1.328l-.618-.84m3.31-.485l-1.235-1.683m3.922.355l-1.847-2.524m4.54 1.195l-2.466-3.362m5.155 2.04l-3.082-4.208m5.774 2.88l-3.7-5.044m6.083 3.867l-4.247-5.79" stroke="#000" stroke-miterlimit="10" fill="none"/><path d="M72.492 161.18l-18.62-8.196M72.492 161.18l1.106 10.11" stroke-width="1.2" stroke="#000" stroke-miterlimit="10" fill="none"/><path d="M73.598 171.29l1.11 10.112" stroke-width="1.2" stroke="#f00" stroke-miterlimit="10" fill="none"/><path d="M53.87 152.984l-9.31-4.097" stroke-width="1.2" stroke="#000" stroke-miterlimit="10" fill="none"/><path d="M44.56 148.887l-9.31-4.094" stroke-width="1.2" stroke="#3cc" stroke-miterlimit="10" fill="none"/><path d="M53.87 152.984l-4.097 9.313" stroke-width="1.2" stroke="#000" stroke-miterlimit="10" fill="none"/><path d="M49.773 162.297l-4.097 9.308" stroke-width="1.2" stroke="#3cc" stroke-miterlimit="10" fill="none"/><path d="M53.87 152.984l4.1-9.308" stroke-width="1.2" stroke="#000" stroke-miterlimit="10" fill="none"/><path d="M57.97 143.676l4.096-9.313" stroke-width="1.2" stroke="#3cc" stroke-miterlimit="10" fill="none"/><path d="M29.25 139.293h6v11h-6zm0 0" fill="#fff"/><use xlink:href="#b" x="29.25" y="147.956" fill="#3cc"/><path d="M39.676 166.105h6v11h-6zm0 0" fill="#fff"/><use xlink:href="#b" x="39.676" y="174.769" fill="#3cc"/><path d="M59.066 128.863h6v11h-6zm0 0" fill="#fff"/><use xlink:href="#b" x="59.066" y="137.526" fill="#3cc"/><path d="M67.707 175.902h15v11h-15zm0 0" fill="#fff"/><g fill="#f00"><use xlink:href="#a" x="67.707" y="184.565"/><use xlink:href="#c" x="75.049" y="184.565"/></g><path d="M257.75 158.246h15v11h-15zm0 0" fill="#fff"/><g fill="#f00"><use xlink:href="#a" x="257.75" y="166.909"/><use xlink:href="#c" x="265.092" y="166.909"/></g></g></svg>
